X:1
T:Title
%%score ( 1 2 ) ( 3 4 )
L:1/8
Q:1/4=117
M:4/4
K:Bb
V:1 treble nm="Grand Piano, Staff 1"
V:2 treble 
V:3 bass nm="Choir Pad, Arthur�s Seat, 66.66.88"
V:4 bass 
V:1
 F2 B2- B/ z/ B A2 | G2 F6 | E-[EA] [FB]2 [Fc]2 [Fd]2 | cB [Fc]6 | F2 [Fd]2- [Fd][Fc] [FB]2 | %5
w: By~John~Goss,~1874 * * * *|||||
 [FA]2 G2 A2 [FB]2 | [Fd]2 [Fc]2- [Fc][Fc] [=Ed]2 | [=Ec]2 F6 | [CF]2 [DG]2- [DG][DG] [DG]2 | %9
w: ||||
 [DG]2 [EA]2- [EA][EA] [EA]2 | [EA]2 [DB]4 [G=B]2- | [GB]2 c2 d2 e2 | [Ec]2 [DB]4 [CA]2- | %13
w: ||||
 [CA]2 [DB]6- | [DB]2 z2 z4 |] %15
w: ||
V:2
 x8 | x8 | .G2 z2 z4 | F2 z2 z4 | x8 | z2 E4 z2 | x8 | x8 | x8 | x8 | x8 | z2 G6 | x8 | x8 | x8 |] %15
V:3
 F,2 B,2- B,/ z/ B, A,2 | G,2 F,6 | [E,B,]2 [D,B,]2 [F,A,]2 B,2 | [D,B,]2 [F,A,]6 | %4
 [F,A,]2 [B,,B,]2- [B,,B,][C,A,] [D,B,]2 | [D,B,]2 B,2 C2 [D,B,]2 | %6
 [B,,B,]2 [C,A,]2- [C,A,][C,A,] [C,B,]2 | [C,B,]2 [F,A,]6 | [F,A,]2 [F,B,]2- [F,B,][F,B,] [F,B,]2 | %9
 [F,B,]2 [F,C]2- [F,C][F,C] [F,C]2 | [^F,C]2 [G,B,]4 [=F,D]2- | [F,D]2 [E,C]2 [D,=B,]2 [C,C]2 | %12
 [E,G,]2 F,4 [F,,F,]2- | [F,,F,]2 [B,,F,]6- | [B,,F,]2 z2 z4 |] %15
V:4
 x8 | x8 | x8 | x8 | x8 | z2 E,4 z2 | x8 | x8 | x8 | x8 | x8 | x8 | x8 | x8 | x8 |] %15

